X: 443
T: Xiangqinqin xiangzai xinyanshang
L: 1/16
M: 2/4
K: Ab
f> f f c f'2 c' f' [I:setbarnb 1]| 
f> f e c B A2 B | 
c2 b2 a b c' e' | 
f2> c2f4 | 
f> f f c f'2 c' f' | 
f> f e c B A2 B | 
c2 b2 a2 b c' | 
f8 |]

@@@ Tune index: 9317
